!!!COM: Robert Schumann
!!!CNT: Deutsch
!!!TXO: Deutsch
!!!OTL: Talismane
!!!LYR: Goethe
!!!OPR: Myrten
!!!OPS: Op. 25
!!!ONM: No. 8
!!!ENC: Ben Fuhrman
!!!YOR: Schumann Lieder - Max Friedlaender, ed.,
!!!YOR: New York: C. F. Peters, Vol. 1
!!!ODT: 1840/
!!NB: Vocal melody and text only encoded.
!!NB: First instance of melodic material only encoded.
**kern	**silbe
*clefG2	*
*k[]	*
*M4/4	*
!!created: 5/11/06 13:13
!!proofed and posted: 5/11/06 13:15
!!edit time: 35 minutes
=1	=1
{4.cc	{Got-
8g	-tes
8.e	ist
16c	der
8.e	O-
16g	-ri-
=2	=2
4cc}	-ent!}
4r	.
2r	.
=3	=3
{4.cc	{Got-
8e	-tes
8.g	ist
16g	der
8g	Oc-
8g	-ci-
=4	=4
4c}	-dent!}
4r	.
2r	.
=5	=5
{4.b-	{Nord
8b-	und
8.a	su2d-
16e	-li-
8e	-ches
8e	Ge-
=6	=6
8f	-la2n-
8f}	-de}
4r	.
4r	.
{8a	{ruht
8dd	im
=7	=7
4.cc	Frie-
8e	-den
4.g	sei-
8B	-ner
=8	=8
8c	Ha2n-
8c}	-de}
4r	.
4r	.
{8cc	{Er
8cc	der
=9	=9
4.cc	Ein-
8e	-zi-
4.g	ge,
8c	Ge-
=10	=10
4f	-rech-
4f}	-te,}
4r	.
{8f	{will
8f	fu2r
=11	=11
4.b-	je-
8e-	-der-
4.a-	mann
8a-	das
=12	=12
4a-	Rech-
4g}	-te}
4r	.
{8g	{Sei
8g	von
=13	=13
4.g	sei-
8g	-nen
4.g	hun-
8cc	-dert
=14	=14
4cc	Na-
4b}	-men}
8r	.
{4g	{die
8g	-ser
=15	=15
4.g	hoch-
8g	-ge-
4g	-lo-
4cc	-bet!
=16	=16
2cc	A-
4b}	-men.}
4r	4r
=17	=17
{4.cc	{Got-
8g	-tes
8.e	ist
16c	der
8.e	O-
16g	-ri-
=18	=18
4cc}	-ent!}
4r	.
2r	.
=19	=19
{4.cc	{Got-
8e	-tes
8.g	ist
16g	der
8g	Oc-
8g	-ci-
=20	=20
2c}	-dent!}
2r	.
!! rest to measure 22
=22	=22
*k[f#]	*
2r	.
4r	.
{8b	{Mich-
8b	ver-
=23	=23
(8dd	-wir-
8cc	|
8b)	|
8a	-ren
(8g	will
8f	|
8b)	|
8a	das
=24	=24
4g	Ir-
4b}	-ren:}
4r	.
{8b	{doch
8dd	du
=25	=25
(8ff#	wei-
8ee	-sst
8dd)	|
8cc	mich
(8b	zu
8a	|
8dd)	|
8cc	ent-
=26	=26
4b	-wir-
4dd}	-ren.}
4r	.
{8dd	{Wenn
8dd	ich
=27	=27
*k[]	*
4gg	hand-
4cc}	-le,}
4r	.
{8ff	wenn
8ff	ich
=28	=28
4ff	dich-
4ee}	-te,}
4r	.
{8dd	{gib
8dd	du
=29	=29
4.gg	mei-
8cc	-nem
4.ff	Weg
8ff	die
=30	=30
(4.ff	Rich-
8ee)	|
4dd}	-te!}
4r	.
=31	=31
{4.cc	{Got-
8g	-tes
8.e	ist
16c	der
8.e	O-
16g	-ri-
=32	=32
4cc}	-ent!}
4r	.
2r	.
=33	=33
{4.cc	{Got-
8e	-tes
8.g	ist
16g	der
8g	Oc-
8g	-ci-
=34	=34
4c}	-dent!}
4r	.
2r	.
=35	=35
{4.b-	{Nord
8b-	und
8.a	su2d-
16e	-li-
8e	-ches
8e	Ge-
=36	=36
8f	-la2n-
8f}	-de}
4r	.
4r	.
{8a	{ruht
8dd	im
=37	=37
4.cc	Frie-
8e	-den
4.g	sei-
8B	-ner
=38	=38
4c	Ha2n-
4c}	-de}
2r	.
=39	=39
{1g	{A-
=40	=40
2c}	-men!}
2r	.
=41	=41
{1g	{A-
=42	=42
2c}	-men!}
2r	.
==	==
*-	*-
